X:1
T:Aloha oe
T: Laukens Music Productions  
T:Jazz Rock
T:ALOHA OE
T:Arr. H. Laukens
C:Unknown
Z:All Rights Reserved
%%score ( 1 2 )
L:1/4
Q:1/4=190
M:4/4
K:G
V:1 treble nm="MusicXML Part"
%%MIDI channel 2
%%MIDI program 16
%%MIDI control 7 102
%%MIDI control 10 64
V:2 treble 
%%MIDI program 16
%%MIDI control 7 102
%%MIDI control 10 64
V:1
"G" [^c^a] [db]3 | [^Af] [Bg]3 | [^c^a] [db]3 |"D7" z2 d [Bg] |:"G" [db]3 [^da] | %5
"C" [eg]3/2 [^df]/ [eg] [_Be] |"G" [Bd]4- | [Bd]2 [Bg] [db] |"D7" [ca]3 [B^g] | %9
 [ca] [ca] [ec'] [db] | [ca]4- | [ca]2 d [Bg] |"G" [db]3 [^da] |"C" [eg]3/2 [^df]/ [eg] [_Be] | %14
"G" [Bd]4- |"E7" [EBd]2 g f |"A7" [Ge]2 a g |"D7" [cf]2 [db] [ca] |"G" g4- |"G" [Bg]3 d || %20
"C" [Ge]2 [cg]2 | [ec']3 [Ge] |"G" [Gd]2 [Bg]2 | [db]3 [Bg] |"D7" c4 | [ca] [ca] [ec'] [ec'] | %26
"G" [db]4 |"G7" [Bg]2 [Bd]2 |"C" [Ge]2 [cg]2 | [ec']3 [Ge] |"G" [Gd]2 [Bg]2 | [db]3 [Bg] |"D7" c4 | %33
 c2 A2 |"G" g4- |1"G" [Bdg] [Bd]"D7" d [Bg] :|2"G" !fermata![Bg]2 x2 |] %37
V:2
 x4 | x4 | x4 | x4 |: x4 | x4 | x4 | x4 | x4 | x4 | x4 | x4 | x4 | x4 | z G F =F | x4 | x4 | x4 | %18
 B2"C7" _B2 | x4 || x4 | x4 | x4 | x4 | f3 g | x4 | x4 | x4 | x4 | x4 | x4 | x4 | f3 g | b a f d | %34
 B2"C" c2 |1 x4 :|2 x4 |] %37

